assets/img/covid/quarantine.svg

<svg width="76" height="73" viewBox="0 0 76 73" fill="none" xmlns="http://www.w3.org/2000/svg">
<path d="M74.5527 7.31934H1.60815V65.6806H74.5527V7.31934Z" fill="#E3E3E3"/>
<path d="M67.4935 24.1543H8.6673V35.3776H67.4935V24.1543Z" fill="#FF5D54"/>
<path d="M8.6673 35.3777V46.601V53.335H25.1386V46.601H67.4935V35.3777H8.6673Z" fill="#34C1AD"/>
<path d="M67.4936 46.6011H25.1387V53.3351H67.4936V46.6011Z" fill="#F5F5F5"/>
<path d="M67.4936 6.19706C67.4936 4.95736 66.4401 3.95239 65.1405 3.95239C63.841 3.95239 62.7875 4.95736 62.7875 6.19706V8.44172C62.7875 9.68142 63.841 10.6864 65.1405 10.6864C66.4401 10.6864 67.4936 9.68142 67.4936 8.44172V6.19706Z" fill="#21ABAB"/>
<path d="M51.0222 6.19706C51.0222 4.95736 49.9687 3.95239 48.6691 3.95239C47.3696 3.95239 46.3161 4.95736 46.3161 6.19706V8.44172C46.3161 9.68142 47.3696 10.6864 48.6691 10.6864C49.9687 10.6864 51.0222 9.68142 51.0222 8.44172V6.19706Z" fill="#21ABAB"/>
<path d="M29.8448 6.19706C29.8448 4.95736 28.7913 3.95239 27.4917 3.95239C26.1922 3.95239 25.1387 4.95736 25.1387 6.19706V8.44172C25.1387 9.68142 26.1922 10.6864 27.4917 10.6864C28.7913 10.6864 29.8448 9.68142 29.8448 8.44172V6.19706Z" fill="#21ABAB"/>
<path d="M13.3734 6.19706C13.3734 4.95736 12.3199 3.95239 11.0203 3.95239C9.72079 3.95239 8.6673 4.95736 8.6673 6.19706V8.44172C8.6673 9.68142 9.72079 10.6864 11.0203 10.6864C12.3199 10.6864 13.3734 9.68142 13.3734 8.44172V6.19706Z" fill="#21ABAB"/>
<path d="M8.83909 29.9938L8.49554 29.5382L16.7312 23.9265L17.0748 24.3822L8.83909 29.9938Z" fill="#F5F5F5"/>
<path d="M17.0747 29.9938L16.7312 29.5382L24.9669 23.9265L25.3104 24.3822L17.0747 29.9938Z" fill="#F5F5F5"/>
<path d="M25.3104 29.9938L24.9669 29.5382L33.2025 23.9265L33.5461 24.3822L25.3104 29.9938Z" fill="#F5F5F5"/>
<path d="M33.5461 29.9938L33.2026 29.5382L41.4383 23.9265L41.7818 24.3822L33.5461 29.9938Z" fill="#F5F5F5"/>
<path d="M41.7818 29.9938L41.4382 29.5382L49.6739 23.9265L50.0174 24.3822L41.7818 29.9938Z" fill="#F5F5F5"/>
<path d="M50.0174 29.9938L49.6739 29.5382L57.9096 23.9265L58.2531 24.3822L50.0174 29.9938Z" fill="#F5F5F5"/>
<path d="M58.2378 30.004L57.9249 29.5282L67.3371 23.9165L67.65 24.3924L58.2378 30.004Z" fill="#F5F5F5"/>
<path d="M8.83909 35.6054L8.49554 35.1497L16.7312 29.5381L17.0748 29.9938L8.83909 35.6054Z" fill="#F5F5F5"/>
<path d="M17.0747 35.6054L16.7312 35.1497L24.9669 29.5381L25.3104 29.9938L17.0747 35.6054Z" fill="#F5F5F5"/>
<path d="M25.3104 35.6054L24.9669 35.1497L33.2025 29.5381L33.5461 29.9938L25.3104 35.6054Z" fill="#F5F5F5"/>
<path d="M33.5461 35.6054L33.2026 35.1497L41.4383 29.5381L41.7818 29.9938L33.5461 35.6054Z" fill="#F5F5F5"/>
<path d="M41.7818 35.6054L41.4382 35.1497L49.6739 29.5381L50.0174 29.9938L41.7818 35.6054Z" fill="#F5F5F5"/>
<path d="M50.0174 35.6054L49.6739 35.1497L57.9096 29.5381L58.2531 29.9938L50.0174 35.6054Z" fill="#F5F5F5"/>
<path d="M58.2378 35.6156L57.9249 35.1397L67.3371 29.5281L67.65 30.0039L58.2378 35.6156Z" fill="#F5F5F5"/>
<path d="M67.4935 23.5933H8.6673C8.51129 23.5933 8.36166 23.6524 8.25134 23.7576C8.14102 23.8629 8.07904 24.0056 8.07904 24.1544V53.3351C8.07904 53.4839 8.14102 53.6266 8.25134 53.7319C8.36166 53.8371 8.51129 53.8962 8.6673 53.8962H67.4935C67.6496 53.8962 67.7992 53.8371 67.9095 53.7319C68.0198 53.6266 68.0818 53.4839 68.0818 53.3351V24.1544C68.0818 24.0056 68.0198 23.8629 67.9095 23.7576C67.7992 23.6524 67.6496 23.5933 67.4935 23.5933ZM66.9053 29.2049H58.6696V24.7156H66.9053V29.2049ZM17.4912 46.0399V41.5506H24.5504V46.0399H17.4912ZM24.5504 47.1622V52.7739H17.4912V47.1622H24.5504ZM25.7269 35.9389H32.7861V40.4282H25.7269V35.9389ZM24.5504 40.4282H17.4912V35.9389H24.5504V40.4282ZM41.0217 34.8166H33.9626V30.3273H41.0217V34.8166ZM42.1983 30.3273H49.2574V34.8166H42.1983V30.3273ZM32.7861 34.8166H25.7269V30.3273H32.7861V34.8166ZM33.9626 35.9389H41.0217V40.4282H33.9626V35.9389ZM42.1983 35.9389H49.2574V40.4282H42.1983V35.9389ZM50.4339 35.9389H57.4931V40.4282H50.4339V35.9389ZM50.4339 34.8166V30.3273H57.4931V34.8166H50.4339ZM50.4339 29.2049V24.7156H57.4931V29.2049H50.4339ZM49.2574 29.2049H42.1983V24.7156H49.2574V29.2049ZM41.0217 29.2049H33.9626V24.7156H41.0217V29.2049ZM32.7861 29.2049H25.7269V24.7156H32.7861V29.2049ZM24.5504 29.2049H17.4912V24.7156H24.5504V29.2049ZM24.5504 30.3273V34.8166H17.4912V30.3273H24.5504ZM16.3147 34.8166H9.25557V30.3273H16.3147V34.8166ZM16.3147 35.9389V40.4282H9.25557V35.9389H16.3147ZM16.3147 41.5506V46.0399H9.25557V41.5506H16.3147ZM25.7269 41.5506H32.7861V46.0399H25.7269V41.5506ZM33.9626 41.5506H41.0217V46.0399H33.9626V41.5506ZM42.1983 41.5506H49.2574V46.0399H42.1983V41.5506ZM50.4339 41.5506H57.4931V46.0399H50.4339V41.5506ZM58.6696 41.5506H66.9053V46.0399H58.6696V41.5506ZM58.6696 40.4282V35.9389H66.9053V40.4282H58.6696ZM58.6696 34.8166V30.3273H66.9053V34.8166H58.6696ZM16.3147 24.7156V29.2049H9.25557V24.7156H16.3147ZM9.25557 47.1622H16.3147V52.7739H9.25557V47.1622ZM25.7269 52.7739V47.1622H66.9053V52.7739H25.7269Z" fill="#3D3D3D"/>
<path d="M65.1405 7.31939V5.07473C65.1427 4.69129 65.2493 4.31499 65.4499 3.9827C65.3476 3.96577 65.2442 3.95565 65.1405 3.95239C64.5164 3.95239 63.9179 4.18888 63.4766 4.60984C63.0353 5.0308 62.7874 5.60174 62.7874 6.19706V8.44172C62.7852 8.93845 62.9564 9.42173 63.274 9.81538C63.5916 10.209 64.0375 10.4906 64.5414 10.6158C65.0453 10.7409 65.5786 10.7025 66.0571 10.5066C66.5356 10.3107 66.9321 9.96842 67.1841 9.53375C66.6198 9.46403 66.1013 9.20094 65.7254 8.79354C65.3494 8.38613 65.1415 7.86219 65.1405 7.31939Z" fill="#13969D"/>
<path d="M48.6692 7.31939V5.07473C48.6714 4.69129 48.778 4.31499 48.9786 3.9827C48.8763 3.96577 48.7729 3.95565 48.6692 3.95239C48.0451 3.95239 47.4466 4.18888 47.0053 4.60984C46.564 5.0308 46.3161 5.60174 46.3161 6.19706V8.44172C46.3139 8.93845 46.4851 9.42173 46.8027 9.81538C47.1203 10.209 47.5662 10.4906 48.0701 10.6158C48.574 10.7409 49.1073 10.7025 49.5857 10.5066C50.0642 10.3107 50.4608 9.96842 50.7128 9.53375C50.1485 9.46403 49.63 9.20094 49.254 8.79354C48.878 8.38613 48.6702 7.86219 48.6692 7.31939Z" fill="#13969D"/>
<path d="M27.4917 7.31939V5.07473C27.4939 4.69129 27.6005 4.31499 27.8011 3.9827C27.6988 3.96577 27.5954 3.95565 27.4917 3.95239C26.8676 3.95239 26.2691 4.18888 25.8278 4.60984C25.3865 5.0308 25.1386 5.60174 25.1386 6.19706V8.44172C25.1364 8.93845 25.3076 9.42173 25.6252 9.81538C25.9428 10.209 26.3887 10.4906 26.8926 10.6158C27.3965 10.7409 27.9298 10.7025 28.4083 10.5066C28.8868 10.3107 29.2833 9.96842 29.5353 9.53375C28.971 9.46403 28.4525 9.20094 28.0765 8.79354C27.7005 8.38613 27.4927 7.86219 27.4917 7.31939Z" fill="#13969D"/>
<path d="M11.0204 7.31939V5.07473C11.0226 4.69129 11.1292 4.31499 11.3298 3.9827C11.2275 3.96577 11.1241 3.95565 11.0204 3.95239C10.3963 3.95239 9.79779 4.18888 9.35651 4.60984C8.91523 5.0308 8.66732 5.60174 8.66732 6.19706V8.44172C8.66512 8.93845 8.83631 9.42173 9.1539 9.81538C9.47148 10.209 9.91738 10.4906 10.4213 10.6158C10.9252 10.7409 11.4585 10.7025 11.9369 10.5066C12.4154 10.3107 12.812 9.96842 13.064 9.53375C12.4997 9.46403 11.9812 9.20094 11.6052 8.79354C11.2292 8.38613 11.0214 7.86219 11.0204 7.31939Z" fill="#13969D"/>
<path d="M65.1405 10.6863C64.5164 10.6863 63.9179 10.4498 63.4766 10.0289C63.0353 9.60793 62.7874 9.03699 62.7874 8.44167V7.31934H61.6109V9.564C61.6134 10.0757 61.799 10.5713 62.1372 10.9686C62.4753 11.3658 62.9456 11.641 63.4701 11.7484C63.9946 11.8558 64.5418 11.789 65.021 11.5591C65.5003 11.3292 65.8828 10.95 66.1052 10.4843C65.8024 10.6163 65.4735 10.6852 65.1405 10.6863Z" fill="#BFBFBF"/>
<path d="M48.6692 10.6863C48.0451 10.6863 47.4466 10.4498 47.0053 10.0289C46.564 9.60793 46.3161 9.03699 46.3161 8.44167V7.31934H45.1396V9.564C45.142 10.0757 45.3277 10.5713 45.6659 10.9686C46.004 11.3658 46.4743 11.641 46.9988 11.7484C47.5233 11.8558 48.0705 11.789 48.5497 11.5591C49.029 11.3292 49.4115 10.95 49.6339 10.4843C49.331 10.6163 49.0021 10.6852 48.6692 10.6863Z" fill="#BFBFBF"/>
<path d="M27.4917 10.6863C26.8677 10.6863 26.2692 10.4498 25.8279 10.0289C25.3866 9.60793 25.1387 9.03699 25.1387 8.44167V7.31934H23.9622V9.564C23.9646 10.0757 24.1503 10.5713 24.4884 10.9686C24.8266 11.3658 25.2968 11.641 25.8213 11.7484C26.3458 11.8558 26.893 11.789 27.3723 11.5591C27.8516 11.3292 28.2341 10.95 28.4565 10.4843C28.1536 10.6163 27.8247 10.6852 27.4917 10.6863Z" fill="#BFBFBF"/>
<path d="M11.0204 10.6863C10.3963 10.6863 9.79778 10.4498 9.3565 10.0289C8.91522 9.60793 8.66731 9.03699 8.66731 8.44167V7.31934H7.49078V9.564C7.49324 10.0757 7.67892 10.5713 8.01705 10.9686C8.35518 11.3658 8.82546 11.641 9.34995 11.7484C9.87445 11.8558 10.4217 11.789 10.9009 11.5591C11.3802 11.3292 11.7627 10.95 11.9851 10.4843C11.6822 10.6163 11.3533 10.6852 11.0204 10.6863Z" fill="#BFBFBF"/>
<path d="M12.1969 12.9312H7.49078V15.1758H12.1969V12.9312Z" fill="#13969D"/>
<path d="M18.0795 16.2981H7.49078V18.5428H18.0795V16.2981Z" fill="#13969D"/>
<path d="M16.903 19.665H14.5499V21.9097H16.903V19.665Z" fill="#13969D"/>
<path d="M25.1386 19.665H22.7856V21.9097H25.1386V19.665Z" fill="#13969D"/>
<path d="M33.3743 19.665H31.0213V21.9097H33.3743V19.665Z" fill="#13969D"/>
<path d="M41.61 19.665H39.257V21.9097H41.61V19.665Z" fill="#13969D"/>
<path d="M49.8457 19.665H47.4926V21.9097H49.8457V19.665Z" fill="#13969D"/>
<path d="M58.0813 19.665H55.7283V21.9097H58.0813V19.665Z" fill="#13969D"/>
<path d="M67.4936 19.665H65.1405V21.9097H67.4936V19.665Z" fill="#13969D"/>
<path d="M33.9626 55.5796H32.7861V63.4359H33.9626V55.5796Z" fill="#3D3D3D"/>
<path d="M41.0217 55.5796H39.8452V59.5078H37.4921V55.5796H36.3156V60.0689C36.3156 60.2177 36.3776 60.3605 36.4879 60.4657C36.5982 60.571 36.7479 60.6301 36.9039 60.6301H39.8452V63.4359H41.0217V60.6301H42.7865V59.5078H41.0217V55.5796Z" fill="#3D3D3D"/>
<path d="M49.6433 55.5798H47.4926C47.3464 55.5711 47.2026 55.618 47.0924 55.71C46.9822 55.8021 46.9146 55.932 46.9044 56.0714V62.9445C46.9146 63.0839 46.9822 63.2138 47.0924 63.3058C47.2026 63.3979 47.3464 63.4447 47.4926 63.4361H49.6433C50.424 63.4818 51.192 63.2318 51.7806 62.7405C52.3692 62.2492 52.7308 61.5562 52.787 60.8121V58.2038C52.7308 57.4596 52.3692 56.7667 51.7806 56.2754C51.192 55.7841 50.424 55.5341 49.6433 55.5798ZM51.6105 60.8121C51.5751 61.2777 51.3488 61.7112 50.9805 62.0186C50.6122 62.326 50.1317 62.4825 49.6433 62.4541H48.0809V56.5618H49.6433C50.1317 56.5334 50.6122 56.6899 50.9805 56.9973C51.3488 57.3047 51.5751 57.7382 51.6105 58.2038V60.8121Z" fill="#3D3D3D"/>
<path d="M58.0813 55.5796C57.3277 55.5562 56.5951 55.8186 56.0439 56.3094C55.4926 56.8001 55.1676 57.4792 55.14 58.198V63.4359H56.3165V60.8175H59.8461V63.4359H61.0226V58.198C60.995 57.4792 60.67 56.8001 60.1188 56.3094C59.5675 55.8186 58.8349 55.5562 58.0813 55.5796ZM56.3165 59.7692V58.198C56.3165 57.7515 56.5025 57.3233 56.8334 57.0075C57.1644 56.6918 57.6133 56.5145 58.0813 56.5145C58.5494 56.5145 58.9983 56.6918 59.3292 57.0075C59.6602 57.3233 59.8461 57.7515 59.8461 58.198V59.7692H56.3165Z" fill="#3D3D3D"/>
<path d="M66.9053 55.5796V56.7019C66.9053 57.1484 66.7193 57.5766 66.3884 57.8923C66.0574 58.2081 65.6085 58.3854 65.1405 58.3854C64.6724 58.3854 64.2235 58.2081 63.8926 57.8923C63.5616 57.5766 63.3757 57.1484 63.3757 56.7019V55.5796H62.1992V56.7019C62.1993 57.3486 62.4336 57.9753 62.8623 58.4761C63.2911 58.977 63.888 59.3212 64.5522 59.4505V63.4359H65.7287V59.4505C66.3929 59.3212 66.9898 58.977 67.4186 58.4761C67.8474 57.9753 68.0816 57.3486 68.0818 56.7019V55.5796H66.9053Z" fill="#3D3D3D"/>
<path d="M74.5527 65.6807H1.60815V69.0477H74.5527V65.6807Z" fill="#BFBFBF"/>
<path d="M1.60815 65.6807V69.0477H7.49078C7.49078 68.4523 7.73869 67.8814 8.17997 67.4604C8.62125 67.0395 9.21976 66.803 9.84383 66.803H74.5527V65.6807H1.60815Z" fill="#A3A3A3"/>
</svg>

<svg xmlns="http://www.w3.org/2000/svg" xmlns:xlink="http://www.w3.org/1999/xlink" width="76" height="73" fill="none" xmlns:v="https://vecta.io/nano"><path d="M74.553 7.32H1.608v58.36h72.945V7.32z" fill="#e3e3e3"/><path d="M67.494 24.154H8.667v11.223h58.826V24.154z" fill="#ff5d54"/><path d="M8.667 35.378v17.957h16.47V46.6h42.355V35.378H8.667z" fill="#34c1ad"/><path d="M67.494 46.6H25.14v6.734h42.355V46.6z" fill="#f5f5f5"/><g fill="#21abab"><use xlink:href="#B"/><use xlink:href="#B" x="-16.472"/><path d="M29.845 6.197c0-1.24-1.053-2.245-2.353-2.245S25.14 4.957 25.14 6.197v2.245c0 1.24 1.053 2.245 2.353 2.245s2.353-1.005 2.353-2.245V6.197zm-16.472 0c0-1.24-1.053-2.245-2.353-2.245S8.667 4.957 8.667 6.197v2.245c0 1.24 1.053 2.245 2.353 2.245s2.353-1.005 2.353-2.245V6.197z"/></g><g fill="#f5f5f5"><use xlink:href="#C"/><use xlink:href="#D"/><use xlink:href="#C" x="16.46"/><use xlink:href="#E"/><use xlink:href="#E" x="8.236"/><use xlink:href="#D" x="32.942"/><path d="M58.238 30.004l-.313-.476 9.412-5.612.313.476-9.412 5.612z"/><use xlink:href="#C" y="5.611"/><use xlink:href="#D" y="5.611"/><use xlink:href="#C" x="16.46" y="5.611"/><use xlink:href="#E" y="5.611"/><use xlink:href="#E" x="8.236" y="5.611"/><use xlink:href="#D" x="32.942" y="5.611"/><path d="M58.238 35.616l-.313-.476 9.412-5.612.313.476-9.412 5.612z"/></g><path d="M67.494 23.593H8.667c-.156 0-.306.06-.416.164a.55.55 0 0 0-.172.397v29.18a.55.55 0 0 0 .172.397c.1.105.26.164.416.164h58.826c.156 0 .306-.06.416-.164a.55.55 0 0 0 .172-.397v-29.18a.55.55 0 0 0-.172-.397c-.1-.105-.26-.164-.416-.164zm-.588 5.612H58.67v-4.49h8.236v4.49zM17.49 46.04v-4.49h7.06v4.49h-7.06zm7.06 1.122v5.612h-7.06v-5.612h7.06zm1.177-11.223h7.06v4.49h-7.06v-4.49zm-1.177 4.49h-7.06v-4.49h7.06v4.49zm16.47-5.612h-7.06v-4.49h7.06v4.49zm1.177-4.49h7.06v4.49h-7.06v-4.49zm-9.412 4.49h-7.06v-4.49h7.06v4.49zm1.177 1.122h7.06v4.49h-7.06v-4.49zm8.236 0h7.06v4.49h-7.06v-4.49zm8.236 0h7.06v4.49h-7.06v-4.49zm0-1.122v-4.49h7.06v4.49h-7.06zm0-5.612v-4.49h7.06v4.49h-7.06zm-1.177 0h-7.06v-4.49h7.06v4.49zm-8.236 0h-7.06v-4.49h7.06v4.49zm-8.236 0h-7.06v-4.49h7.06v4.49zm-8.236 0h-7.06v-4.49h7.06v4.49zm0 1.122v4.49h-7.06v-4.49h7.06zm-8.236 4.49h-7.06v-4.49h7.06v4.49zm0 1.122v4.49h-7.06v-4.49h7.06zm0 5.612v4.49h-7.06v-4.49h7.06zm9.412 0h7.06v4.49h-7.06v-4.49zm8.236 0h7.06v4.49h-7.06v-4.49zm8.236 0h7.06v4.49h-7.06v-4.49zm8.236 0h7.06v4.49h-7.06v-4.49zm8.236 0h8.236v4.49H58.67v-4.49zm0-1.122v-4.49h8.236v4.49H58.67zm0-5.612v-4.49h8.236v4.49H58.67zm-42.355-10.1v4.49h-7.06v-4.49h7.06zm-7.06 22.447h7.06v5.612h-7.06v-5.612zm16.47 5.612v-5.612h41.178v5.612H25.727z" fill="#3d3d3d"/><g fill="#13969d"><use xlink:href="#F"/><use xlink:href="#G"/><use xlink:href="#G" x="-21.178"/><use xlink:href="#F" x="-54.12"/></g><path d="M65.14 10.686a2.41 2.41 0 0 1-1.664-.657c-.44-.42-.7-.992-.7-1.587V7.32H61.6v2.245a2.18 2.18 0 0 0 .526 1.405c.338.397.808.672 1.333.78s1.072.04 1.55-.2.862-.6 1.084-1.075c-.303.132-.632.2-.965.202zm-16.47 0a2.41 2.41 0 0 1-1.664-.657c-.44-.42-.7-.992-.7-1.587V7.32H45.14v2.245a2.18 2.18 0 0 0 .526 1.405c.338.397.808.672 1.333.78s1.072.04 1.55-.2.862-.6 1.084-1.075c-.303.132-.632.2-.965.202zm-21.178 0a2.41 2.41 0 0 1-1.664-.657c-.44-.42-.7-.992-.7-1.587V7.32H23.96v2.245a2.18 2.18 0 0 0 .526 1.405c.338.397.808.672 1.333.78s1.072.04 1.55-.2.862-.6 1.084-1.075c-.303.132-.632.2-.965.202zm-16.472 0a2.41 2.41 0 0 1-1.664-.657c-.44-.42-.7-.992-.7-1.587V7.32H7.5v2.245a2.18 2.18 0 0 0 .526 1.405 2.37 2.37 0 0 0 1.333.78c.525.108 1.072.04 1.55-.2s.862-.6 1.084-1.075c-.303.132-.632.2-.965.202z" fill="#bfbfbf"/><path d="M12.197 12.93H7.5v2.245h4.706V12.93zm5.883 3.368H7.5v2.245h10.6v-2.245zm-1.177 3.367H14.55V21.9h2.353v-2.245zm8.237 0h-2.353V21.9h2.353v-2.245zm8.234 0H31.02V21.9h2.353v-2.245zm8.226 0h-2.353V21.9H41.6v-2.245zm8.246 0h-2.353V21.9h2.353v-2.245zm8.234 0h-2.353V21.9h2.353v-2.245zm9.414 0H65.14V21.9h2.353v-2.245z" fill="#13969d"/><path d="M33.963 55.58h-1.177v7.856h1.177V55.58zm7.06 0h-1.177v3.928h-2.353V55.58h-1.176v4.5a.55.55 0 0 0 .172.397c.1.105.26.164.416.164h2.94v2.806h1.177V60.63h1.765v-1.122H41.02V55.58zm8.62 0h-2.15a.57.57 0 0 0-.4.13.52.52 0 0 0-.188.361v6.873a.52.52 0 0 0 .188.361.55.55 0 0 0 .4.13h2.15a3.06 3.06 0 0 0 2.137-.696c.6-.5.95-1.184 1.006-1.928v-2.608c-.056-.744-.418-1.437-1.006-1.928a3.06 3.06 0 0 0-2.137-.696zm1.967 5.232a1.74 1.74 0 0 1-.63 1.206 1.92 1.92 0 0 1-1.337.435H48.08V56.56h1.562c.488-.028.97.128 1.337.436s.595.74.63 1.206v2.608zm6.47-5.232a2.93 2.93 0 0 0-2.037.73c-.55.5-.876 1.17-.904 1.9v5.238h1.176V60.82h3.53v2.618h1.176V58.2c-.028-.72-.353-1.398-.904-1.9a2.93 2.93 0 0 0-2.038-.73zm-1.765 4.2V58.2c0-.447.186-.875.517-1.2a1.81 1.81 0 0 1 1.248-.493 1.81 1.81 0 0 1 1.248.493 1.65 1.65 0 0 1 .517 1.19v1.57h-3.53zm10.6-4.2v1.122c0 .447-.186.875-.517 1.2a1.81 1.81 0 0 1-1.248.493 1.81 1.81 0 0 1-1.248-.493c-.33-.316-.517-.744-.517-1.2V55.58H62.2v1.122c0 .647.234 1.273.663 1.774a2.96 2.96 0 0 0 1.7.974v3.985h1.177V59.45a3.04 3.04 0 0 0 1.7-.974c.44-.5.663-1.128.663-1.774V55.58h-1.177z" fill="#3d3d3d"/><path d="M74.553 65.68H1.608v3.367h72.945V65.68z" fill="#bfbfbf"/><path d="M1.608 65.68v3.367H7.49c0-.595.248-1.166.69-1.587s1.04-.657 1.664-.657h64.71V65.68H1.608z" fill="#a3a3a3"/><defs ><path id="B" d="M67.494 6.197c0-1.24-1.053-2.245-2.353-2.245s-2.353 1.005-2.353 2.245v2.245c0 1.24 1.053 2.245 2.353 2.245s2.353-1.005 2.353-2.245V6.197z"/><path id="C" d="M8.84 29.994l-.344-.456 8.236-5.612.344.456-8.236 5.612z"/><path id="D" d="M17.075 29.994l-.343-.456 8.236-5.612.344.456-8.236 5.612z"/><path id="E" d="M33.546 29.994l-.344-.456 8.236-5.612.343.456-8.236 5.612z"/><path id="F" d="M65.14 7.32V5.075c.002-.383.11-.76.31-1.092-.102-.017-.206-.027-.31-.03-.624 0-1.223.236-1.664.657s-.69.992-.69 1.587v2.245a2.17 2.17 0 0 0 .487 1.374c.318.394.763.675 1.267.8a2.45 2.45 0 0 0 1.516-.109 2.31 2.31 0 0 0 1.127-.973 2.38 2.38 0 0 1-1.459-.74 2.18 2.18 0 0 1-.585-1.474z"/><path id="G" d="M48.67 7.32V5.075c.002-.383.11-.76.31-1.092-.102-.017-.206-.027-.31-.03-.624 0-1.223.236-1.664.657s-.69.992-.69 1.587v2.245a2.17 2.17 0 0 0 .487 1.374c.318.394.764.675 1.267.8a2.45 2.45 0 0 0 1.516-.109 2.31 2.31 0 0 0 1.127-.973 2.38 2.38 0 0 1-1.459-.74 2.18 2.18 0 0 1-.585-1.474z"/></defs></svg>
